resources/images/download-transcript.svg

<svg width="24" height="24" xmlns="http://www.w3.org/2000/svg"><g fill="none" fill-rule="evenodd"><path d="M0 0h24v24H0z"/><path d="M20 2H4c-1.1 0-2 .9-2 2v18l4-4h14c1.1 0 2-.9 2-2V4c0-1.1-.9-2-2-2zm-1 14H6l-2 2V5c0-.55.45-1 1-1h14c.55 0 1 .45 1 1v10c0 .55-.45 1-1 1zm-3-7H8c-.55 0-1 .45-1 1s.45 1 1 1h8c.55 0 1-.45 1-1s-.45-1-1-1zm0-3H8c-.55 0-1 .45-1 1s.45 1 1 1h8c.55 0 1-.45 1-1s-.45-1-1-1zm-8 8h3c.55 0 1-.45 1-1s-.45-1-1-1H8c-.55 0-1 .45-1 1s.45 1 1 1z" fill="#0E69FF" fill-rule="nonzero"/></g></svg>

<?xml version="1.0" encoding="UTF-8"?>
<svg width="24px" height="24px" viewBox="0 0 24 24" version="1.1" xmlns="http://www.w3.org/2000/svg" xmlns:xlink="http://www.w3.org/1999/xlink">
    <!-- Generator: Sketch 54.1 (76490) - https://sketchapp.com -->
    <title>Icons / actions / download-transcript</title>
    <desc>Created with Sketch.</desc>
    <g id="Icons-/-actions-/-download-transcript" stroke="none" stroke-width="1" fill="none" fill-rule="evenodd">
        <g id="round-chat_bubble_outline-24px">
            <polygon id="Path" points="0 0 24 0 24 24 0 24"></polygon>
            <path d="M20,2 L4,2 C2.9,2 2,2.9 2,4 L2,22 L6,18 L20,18 C21.1,18 22,17.1 22,16 L22,4 C22,2.9 21.1,2 20,2 Z M19,16 L6,16 L4,18 L4,5 C4,4.45 4.45,4 5,4 L19,4 C19.55,4 20,4.45 20,5 L20,15 C20,15.55 19.55,16 19,16 Z M16,9 L8,9 C7.45,9 7,9.45 7,10 C7,10.55 7.45,11 8,11 L16,11 C16.55,11 17,10.55 17,10 C17,9.45 16.55,9 16,9 Z M16,6 L8,6 C7.45,6 7,6.45 7,7 C7,7.55 7.45,8 8,8 L16,8 C16.55,8 17,7.55 17,7 C17,6.45 16.55,6 16,6 Z M8,14 L11,14 C11.55,14 12,13.55 12,13 C12,12.45 11.55,12 11,12 L8,12 C7.45,12 7,12.45 7,13 C7,13.55 7.45,14 8,14 Z" id="Shape" fill="#0E69FF" fill-rule="nonzero"></path>
        </g>
    </g>
</svg>
